X: 2513
T: Ballydesmond, The
R: polka
M: 2/4
K: Adorian
|:EA AB|cd eg|G>F GA|GE ED|
E>A AB|cd ef|g>e dB|1 A>B AG:|2 A>B ce||
|:a2 ab|ag ef|g>f ga|ge ed|
ea ab|ag ef|g>e dB|1 A>B ce:|2 A>B AG||

